X:1
T:Title
%%score { ( 1 3 5 ) | ( 2 4 ) }
L:1/8
Q:1/4=100
M:4/4
K:G
V:1 treble nm="Grand Piano"
V:3 treble 
V:5 treble 
V:2 bass 
V:4 bass 
V:1
 [B,D]2 [B,D][B,D] E2 GG | F3 E D2 DD | E4 z2 F2 | [B,G]6 BB | B2 BB A2 ^D-[DF] | %5
w: Milicent~Kingham * * * * *|||||
 [G,EG]2 C-[CE] ^D2 [^CE][DF] | [EG]2 [FA][FA] [GB]2 [F^c][Ec] | d6 D2 | A2 AG F2 z A, | B4 z2 G2 | %10
w: |||||
 e2 e[=FBd] [Ac]2 z D | c6 z2 | G2 GA BB[Ac][Ad] | e2 z2 z4 | z2 G2 z2 F2 |[M:2/4] [B,G]4 |] %16
w: ||||||
V:2
 [G,,G,]2 [G,,G,][G,,G,] [C,G,C]2 [E,G,C][E,G,C] | [D,A,C]3 [F,A,C] [G,B,]2 [B,,G,][B,,G,] | %2
 [C,G,D]2 [A,,A,][A,,A,] [D,B,D]2 .[D,A,D]2 | [G,,G,]6 [G,B,D][G,B,D] | %4
 [G,B,D]2 [G,B,E][G,B,E] [F,CE]2 z A, | E,2 z G, [B,,F,B,]2 [B,,B,][B,,B,] | %6
 [E,B,]2 [E,B,][E,A,] [E,G,]2 [A,,A,][A,,G,] | [D,F,D]6 F,2 | %8
 [D,F,D]2 [D,CD][D,B,D] [D,A,D]2 [E,G,]F, | D2 C[A,CF] [B,D]2 [A,C]B, | [CG]4[K:bass] z4 | %11
 A4 z2 F2 | z4 .[B,G]2[K:bass] z2 | [E,B,]2 [F,A,]^G, A,2 C,C, | %14
 z F z B, [D,A,C][D,A,C] .[D,A,D]2 |[M:2/4] [G,,G,]4 |] %16
V:3
 x8 | x8 | z2 C[CA] G2 z C | x8 | z4 z2 .[B,G]2 | z2 .[A,F]2 z4 | x8 | x8 | z4 z2 D2 | %9
 z2 EA G2 z D | z4 z2 [^GB]2 | z4 E2 BA | x8 | A^G[Ae][EBd] [EAc]2 [DEB][CEA] | %14
 .[Gd]2 [CE]D GE z C |[M:2/4] x4 |] %16
V:4
 x8 | x8 | x8 | x8 | z4 z2 B,,2 | z2 A,,2 z4 | x8 | x8 | x8 | G,4 z4 | z2[K:bass] C,D, E,2 E,2 | %11
 [A,C]6 D[CD] | [B,D]2 [B,DE][A,CF] G,-[G,D][K:bass][=F,A,][F,A,] | x8 | [D,B,]2 D,2 z4 | %15
[M:2/4] x4 |] %16
V:5
 x8 | x8 | x8 | x8 | x8 | x8 | x8 | x8 | x8 | x8 | z4 E4 | x8 | x8 | x8 | x8 |[M:2/4] x4 |] %16

